X: 12
T: Forget Me Not
C: Larry Redican
Z: Pipolidz
S: https://thesession.org/tunes/233#setting53969
R: reel
M: 4/4
L: 1/8
K: Dmaj
| d2fd BAFE | DBBB ABD2 | FAdf ffed | Beed egfe |
| d2fd BAFE | DBBD ABD2 | FAdf efdB | AFGE D2z2 |
| fffd BAFE | D2BD ABDE | FAdfffed | Beed egfe |
| d2fd BAFE | DBBD ABD2 | FAdf efdB | AFGE FDD2 |
| defd Adfd | gefd edBd | Addd Adfa | afdf efg2 |
| bfff aaaf | dafd eBd2 | ABdf efdB | AFGE Fdd2 |
| defd a2fd | (3gbg(3faf (3egedB | Adfd Adfb | afdf efg2 |
| bfff afea | dafd eBd2 | ABdf efd2 | AFGE d2 zB |

%-------------------- TUNE SEPARATOR --------------------%

